X:74
T:Ranzo Ray (b)
M:6/8
L:1/8
Q:1/4=100
K:F
C|\
F2F F2G|A2A F2A|c2c c2d|c3 F3 |
G3  G3 |G3  A2c|d3  e2c|d3-d2c|
d2e f2e|d2c c2G|G2A B2G|F3 E3 |
F3  A3 |G3  c3 |F3- F2 ||
